img/icons/cart.svg

<svg width="31" height="30" fill="none" xmlns="http://www.w3.org/2000/svg"><path d="M9.5 24a2.996 2.996 0 0 0-2.985 3c0 1.65 1.335 3 2.985 3s3-1.35 3-3-1.35-3-3-3ZM.5 0v3h3l5.4 11.385-2.025 3.675A2.9 2.9 0 0 0 6.5 19.5c0 1.65 1.35 3 3 3h18v-3H10.13a.371.371 0 0 1-.375-.375l.045-.18 1.35-2.445h11.175a2.986 2.986 0 0 0 2.625-1.545l5.37-9.735c.12-.21.18-.465.18-.72 0-.825-.675-1.5-1.5-1.5H6.815l-1.41-3H.5Zm24 24a2.996 2.996 0 0 0-2.985 3c0 1.65 1.335 3 2.985 3s3-1.35 3-3-1.35-3-3-3Z" fill="#2D2D2D"/></svg>

<svg width="31" height="30" viewBox="0 0 31 30" fill="none" xmlns="http://www.w3.org/2000/svg">
<path d="M9.5 24C7.85 24 6.515 25.35 6.515 27C6.515 28.65 7.85 30 9.5 30C11.15 30 12.5 28.65 12.5 27C12.5 25.35 11.15 24 9.5 24ZM0.5 0V3H3.5L8.9 14.385L6.875 18.06C6.635 18.48 6.5 18.975 6.5 19.5C6.5 21.15 7.85 22.5 9.5 22.5H27.5V19.5H10.13C9.92 19.5 9.755 19.335 9.755 19.125L9.8 18.945L11.15 16.5H22.325C23.45 16.5 24.44 15.885 24.95 14.955L30.32 5.22C30.44 5.01 30.5 4.755 30.5 4.5C30.5 3.675 29.825 3 29 3H6.815L5.405 0H0.5ZM24.5 24C22.85 24 21.515 25.35 21.515 27C21.515 28.65 22.85 30 24.5 30C26.15 30 27.5 28.65 27.5 27C27.5 25.35 26.15 24 24.5 24Z" fill="#2D2D2D"/>
</svg>
